svgs/regular/pipe-valve.svg

<svg xmlns="http://www.w3.org/2000/svg" viewBox="0 0 512 512"><!--! Font Awesome Pro 6.6.0 by @fontawesome - https://fontawesome.com License - https://fontawesome.com/license (Commercial License) Copyright 2024 Fonticons, Inc. --><path d="M280 56c0-13.3-10.7-24-24-24s-24 10.7-24 24l0 21L128 64c-17.7 0-32 14.3-32 32s14.3 32 32 32l104-13 0 77L48 192l0-8c0-13.3-10.7-24-24-24s-24 10.7-24 24l0 32L0 424l0 32c0 13.3 10.7 24 24 24s24-10.7 24-24l0-8 416 0 0 8c0 13.3 10.7 24 24 24s24-10.7 24-24l0-32 0-208 0-32c0-13.3-10.7-24-24-24s-24 10.7-24 24l0 8-184 0 0-77 104 13c17.7 0 32-14.3 32-32s-14.3-32-32-32L280 77l0-21zM48 400l0-160 208 0 208 0 0 160L48 400z"/></svg>

<svg xmlns="http://www.w3.org/2000/svg" viewBox="0 0 512 512"><!--! Font Awesome Pro 6.5.2 by @fontawesome - https://fontawesome.com License - https://fontawesome.com/license (Commercial License) Copyright 2024 Fonticons, Inc. --><path d="M280 56c0-13.3-10.7-24-24-24s-24 10.7-24 24V77L128 64c-17.7 0-32 14.3-32 32s14.3 32 32 32l104-13v77H48v-8c0-13.3-10.7-24-24-24s-24 10.7-24 24v32V424v32c0 13.3 10.7 24 24 24s24-10.7 24-24v-8H464v8c0 13.3 10.7 24 24 24s24-10.7 24-24V424 216 184c0-13.3-10.7-24-24-24s-24 10.7-24 24v8H280V115l104 13c17.7 0 32-14.3 32-32s-14.3-32-32-32L280 77V56zM48 400V240H256 464V400H48z"/></svg>
